src/64x64/places/folder-gruvbox-original-aqua-owncloud.svg

<svg xmlns="http://www.w3.org/2000/svg" width="64" height="64" version="1">
 <rect style="opacity:0.2" width="56" height="36" x="4" y="22" rx="2.8" ry="2.8"/>
 <path style="fill:#427b58" d="M 4,46.2 C 4,47.751 5.2488,49 6.8,49 H 57.2 C 58.751,49 60,47.751 60,46.2 V 15.8 C 60,14.249 58.751,13 57.2,13 H 32 C 27.8,13 26.4,7 22.2,7 H 6.8 C 5.2488,7 4,8.2488 4,9.8"/>
 <rect style="opacity:0.2" width="56" height="36" x="4" y="20" rx="2.8" ry="2.8"/>
 <rect style="fill:#D5D7B3" width="48" height="22" x="8" y="16" rx="2.8" ry="2.8"/>
 <rect style="fill:#8ec07c" width="56" height="36" x="4" y="21" rx="2.8" ry="2.8"/>
 <path style="opacity:0.1;fill:#D5D7B3" d="M 6.8008,7 C 5.2496,7 4,8.2496 4,9.8008 V 10.801 C 4,9.2496 5.2496,8 6.8008,8 H 22.199 C 26.399,8 27.8,14 32,14 H 57.199 C 58.75,14 60,15.25 60,16.801 V 15.801 C 60,14.25 58.75,13 57.199,13 H 32 C 27.8,13 26.399,7 22.199,7 Z"/>
 <path style="fill:#313D38" d="M 30.5 30 C 28.008798 30 26 32.008798 26 34.5 C 26 35.272324 26.1945 35.9987 26.535156 36.632812 C 27.818516 35.028962 29.790162 34 32 34 C 33.07255 34 34.087128 34.242919 34.996094 34.675781 C 34.998294 34.616961 35 34.55938 35 34.5 C 35 32.008798 32.991202 30 30.5 30 z M 25.5 31 C 24.113368 31 23 32.113368 23 33.5 C 23 33.6015 23.004025 33.702541 23.015625 33.800781 C 23.673191 33.421275 24.407946 33.160967 25.191406 33.054688 C 25.388686 32.332307 25.73421 31.669814 26.1875 31.097656 C 25.968934 31.035716 25.73916 31 25.5 31 z M 35.896484 33 C 35.861921 33.000534 35.827135 33.002137 35.792969 33.003906 C 35.928189 33.479554 36 33.981478 36 34.5 C 36 34.746252 35.984605 34.988765 35.953125 35.226562 C 36.729335 35.759705 37.392559 36.445813 37.900391 37.240234 A 5.5 5.5 0 0 1 39.5 37 A 5.5 5.5 0 0 1 40 37.023438 C 40.000045 37.015614 40 37.007835 40 37 C 40 34.78494 38.21506 33 36 33 C 35.96539 33 35.931048 32.999466 35.896484 33 z M 25.015625 34.097656 C 22.722745 34.553858 21 36.570348 21 39 C 21 40.712458 21.85653 42.220472 23.164062 43.121094 C 23.630961 42.542832 24.309457 42.140302 25.078125 42.03125 C 25.028085 41.694366 25 41.350722 25 41 C 25 39.741464 25.334015 38.559866 25.917969 37.539062 C 25.338379 36.667957 25 35.621972 25 34.5 C 25 34.36422 25.006025 34.230864 25.015625 34.097656 z M 32 35 C 28.680372 35 26 37.680372 26 41 C 26 44.319628 28.680372 47 32 47 C 35.319628 47 38 44.319628 38 41 C 38 37.680372 35.319628 35 32 35 z M 39.5 38 A 4.5 4.5 0 0 0 38.390625 38.146484 A 7 7 0 0 1 39 41 A 7 7 0 0 1 36.792969 46.082031 A 4.5 4.5 0 0 0 39.5 47 A 4.5 4.5 0 0 0 44 42.5 A 4.5 4.5 0 0 0 39.5 38 z M 20 39.125 C 18.272362 39.56773 17 41.131044 17 43 C 17 45.21506 18.78494 47 21 47 C 21.694108 47 22.346113 46.824481 22.914062 46.515625 C 22.651054 46.070169 22.5 45.55262 22.5 45 C 22.5 44.646448 22.562381 44.30763 22.675781 43.992188 C 21.096389 42.936974 20.045816 41.152544 20.003906 39.125 L 20 39.125 z M 44.972656 43 C 44.857096 44.273416 44.309874 45.422215 43.472656 46.296875 C 43.838542 46.727417 44.38626 47 45 47 C 46.11049 47 47 46.11049 47 45 C 47 43.88951 46.11049 43 45 43 C 44.9906 43 44.981996 42.999874 44.972656 43 z M 25.292969 43.011719 C 24.280229 43.113439 23.5 43.958916 23.5 45 C 23.5 46.11049 24.38951 47 25.5 47 C 26.212374 47 26.833482 46.633741 27.1875 46.078125 C 26.466184 45.393753 25.890749 44.557454 25.511719 43.621094 C 25.490419 43.568474 25.469259 43.514177 25.449219 43.460938 C 25.393739 43.313518 25.342475 43.163641 25.296875 43.011719 L 25.292969 43.011719 z"/>
</svg>

<?xml version="1.0" encoding="UTF-8"?>
<svg width="64" height="64" version="1" xmlns="http://www.w3.org/2000/svg">
 <rect x="4" y="22" width="56" height="36" rx="2.8" ry="2.8" opacity=".2"/>
 <path d="m4 46.2c0 1.551 1.2488 2.8 2.8 2.8h50.4c1.551 0 2.8-1.249 2.8-2.8v-30.4c0-1.551-1.249-2.8-2.8-2.8h-25.2c-4.2 0-5.6-6-9.8-6h-15.4c-1.5512 0-2.8 1.2488-2.8 2.8" fill="#427b58"/>
 <rect x="4" y="20" width="56" height="36" rx="2.8" ry="2.8" opacity=".2"/>
 <rect x="8" y="16" width="48" height="22" rx="2.8" ry="2.8" fill="#D5D7B3"/>
 <rect x="4" y="21" width="56" height="36" rx="2.8" ry="2.8" fill="#8ec07c"/>
 <path d="m6.8008 7c-1.5512 0-2.8008 1.2496-2.8008 2.8008v1.0002c0-1.5514 1.2496-2.801 2.8008-2.801h15.398c4.2 0 5.601 6 9.801 6h25.199c1.551 0 2.801 1.25 2.801 2.801v-1c0-1.551-1.25-2.801-2.801-2.801h-25.199c-4.2 0-5.601-6-9.801-6z" fill="#D5D7B3" opacity=".1"/>
 <path d="m30.5 30c-2.4912 0-4.5 2.0088-4.5 4.5 0 0.77232 0.1945 1.4987 0.53516 2.1328 1.2834-1.6038 3.255-2.6328 5.4648-2.6328 1.0726 0 2.0871 0.24292 2.9961 0.67578 0.0022-0.05882 0.003906-0.1164 0.003906-0.17578 0-2.4912-2.0088-4.5-4.5-4.5zm-5 1c-1.3866 0-2.5 1.1134-2.5 2.5 0 0.1015 0.004025 0.20254 0.015625 0.30078 0.65757-0.37951 1.3923-0.63981 2.1758-0.74609 0.19728-0.72238 0.5428-1.3849 0.99609-1.957-0.21857-0.06194-0.44834-0.097656-0.6875-0.097656zm10.396 2c-0.034563 5.34e-4 -0.069349 0.002137-0.10352 0.003906 0.13522 0.47565 0.20703 0.97757 0.20703 1.4961 0 0.24625-0.015395 0.48876-0.046875 0.72656 0.77621 0.53314 1.4394 1.2193 1.9473 2.0137a5.5 5.5 0 0 1 1.5996-0.24023 5.5 5.5 0 0 1 0.5 0.023438c4.5e-5 -0.007824 0-0.015603 0-0.023438 0-2.2151-1.7849-4-4-4-0.03461 0-0.068952-5.34e-4 -0.10352 0zm-10.881 1.0977c-2.2929 0.4562-4.0156 2.4727-4.0156 4.9023 0 1.7125 0.85653 3.2205 2.1641 4.1211 0.4669-0.57826 1.1454-0.98079 1.9141-1.0898-0.05004-0.33688-0.078125-0.68053-0.078125-1.0312 0-1.2585 0.33402-2.4401 0.91797-3.4609-0.57959-0.8711-0.91797-1.9171-0.91797-3.0391 0-0.13578 0.006025-0.26914 0.015625-0.40234zm6.9844 0.90234c-3.3196 0-6 2.6804-6 6s2.6804 6 6 6 6-2.6804 6-6-2.6804-6-6-6zm7.5 3a4.5 4.5 0 0 0-1.1094 0.14648 7 7 0 0 1 0.60938 2.8535 7 7 0 0 1-2.207 5.082 4.5 4.5 0 0 0 2.707 0.91797 4.5 4.5 0 0 0 4.5-4.5 4.5 4.5 0 0 0-4.5-4.5zm-19.5 1.125c-1.7276 0.44273-3 2.006-3 3.875 0 2.2151 1.7849 4 4 4 0.69411 0 1.3461-0.17552 1.9141-0.48438-0.26301-0.44546-0.41406-0.963-0.41406-1.5156 0-0.35355 0.062381-0.69237 0.17578-1.0078-1.5794-1.0552-2.63-2.8396-2.6719-4.8672h-0.003906zm24.973 3.875c-0.11556 1.2734-0.66278 2.4222-1.5 3.2969 0.36589 0.43054 0.9136 0.70312 1.5273 0.70312 1.1105 0 2-0.88951 2-2s-0.88951-2-2-2c-0.0094 0-0.018004-1.26e-4 -0.027344 0zm-19.68 0.011719c-1.0127 0.10172-1.793 0.9472-1.793 1.9883 0 1.1105 0.88951 2 2 2 0.71237 0 1.3335-0.36626 1.6875-0.92188-0.72132-0.68437-1.2968-1.5207-1.6758-2.457-0.0213-0.05262-0.04246-0.10692-0.0625-0.16016-0.05548-0.14742-0.10674-0.2973-0.15234-0.44922h-0.003906z" fill="#313D38"/>
</svg>
